src/assets/images/reactions/women/big/dislike.svg

<svg width="24" height="24" viewBox="0 0 24 24" fill="none" xmlns="http://www.w3.org/2000/svg">
<g clip-path="url(#clip0_862_4927)">
<path d="M23.457 1.91304L23.457 11.1304L19.0934 12L17.457 11.1304L17.0934 1.91304L18.1843 0.695653L22.3661 0.869566L23.457 1.91304Z" fill="#D953DC"/>
<path d="M17.4531 1.21773L17.4531 11.6525L14.544 14.7829L11.9986 20.1743L11.8168 22.2612L11.0895 23.3047L9.27131 22.9569L8.1804 20.8699L9.63494 15.6525L9.08949 14.4351L4.1804 14.7829L1.45312 13.7395L1.08949 10.9569L1.08949 6.60904L2.18039 4.00034L3.08949 1.73947L5.81676 0.522079L17.4531 1.21773Z" fill="#FACCB4"/>
<path fill-rule="evenodd" clip-rule="evenodd" d="M11.3162 23.9677C11.7331 23.8428 12.0555 23.5235 12.2345 23.058C12.3741 22.6948 12.4468 22.0903 12.4104 21.5948L12.379 21.1661L12.665 20.4684C13.6115 18.1598 14.7842 15.9509 15.6802 14.7886C15.8764 14.5341 16.2234 14.152 16.4512 13.9394C16.9163 13.5054 17.1375 13.2311 17.4663 12.68L17.6923 12.3014L18.0165 12.4089C18.3326 12.5137 18.3881 12.5165 20.2492 12.5176C22.2801 12.5189 22.3986 12.508 22.8673 12.2757C23.2785 12.0719 23.6972 11.5859 23.8913 11.0873C23.9782 10.8642 23.9834 10.6398 23.9972 6.55784C24.0061 3.89698 23.9936 2.14988 23.9641 1.96552C23.8217 1.07362 23.0733 0.346794 22.1658 0.21908C21.9986 0.195564 21.1237 0.176226 20.2218 0.176133C18.4263 0.175992 18.1235 0.207251 17.6887 0.437525L17.4496 0.564162L16.5688 0.462073C14.3136 0.200681 12.7307 0.103568 9.53159 0.0302995C7.76768 -0.0101133 7.01974 -0.0101113 6.51706 0.0303951C4.52626 0.190733 3.03548 0.805748 2.27867 1.77894C1.84872 2.33186 1.67581 2.84164 1.66872 3.57734C1.66428 4.03953 1.66182 4.04924 1.50723 4.21099C1.06398 4.67496 0.729582 5.24529 0.597426 5.76291C0.487601 6.19305 0.494978 6.87476 0.614403 7.3292L0.710047 7.6932L0.56318 7.90095C0.17235 8.45368 -0.0410284 9.15572 0.0065772 9.73192C0.0440051 10.1854 0.235728 10.7515 0.472598 11.1082L0.668664 11.4034L0.596124 11.6105C0.395089 12.1848 0.396874 12.9123 0.600755 13.4576C0.730983 13.806 1.09017 14.2931 1.40469 14.5478C2.59898 15.5151 4.92852 15.7286 7.95743 15.1481C8.36263 15.0704 8.72452 15.0068 8.76161 15.0067C8.81655 15.0066 8.82316 15.0807 8.7973 15.4078C8.75799 15.9055 8.6158 16.4966 8.2447 17.7054C7.88238 18.8857 7.77019 19.3904 7.71028 20.1105C7.65882 20.7289 7.69721 21.2715 7.82575 21.742C8.11356 22.7953 8.98044 23.6321 10.0622 23.9006C10.4481 23.9964 11.1032 24.0315 11.3162 23.9677ZM10.2967 22.559C9.57616 22.3228 9.20858 21.8269 9.10845 20.9558C9.02641 20.2423 9.1657 19.4299 9.60607 18.0538C10.0692 16.6065 10.241 15.7155 10.2026 14.961C10.1578 14.0817 9.75076 13.5997 9.05202 13.5987C8.95705 13.5985 8.50125 13.6729 8.03914 13.764C6.61512 14.0447 6.24348 14.0847 5.0285 14.0881C4.13543 14.0906 3.83475 14.0745 3.48612 14.0056C2.03312 13.7182 1.50955 12.907 2.03963 11.7646C2.27853 11.2497 2.26463 11.1528 1.88707 10.7018C1.21432 9.89798 1.24244 9.18439 1.98054 8.33033C2.24462 8.02477 2.27008 7.77572 2.08024 7.35446C1.95739 7.0818 1.94331 6.99778 1.94249 6.53437C1.94167 6.05768 1.95247 5.99657 2.08294 5.73757C2.18008 5.5447 2.35627 5.33072 2.64678 5.05285C2.89575 4.81465 3.08343 4.59385 3.10373 4.51528C3.12264 4.44192 3.11073 4.18766 3.07721 3.9502C3.00601 3.44549 3.05024 3.15748 3.25528 2.79086C3.60569 2.1643 4.53658 1.69619 5.91077 1.45545C6.31424 1.38477 6.65602 1.37477 8.38067 1.38321C11.6785 1.39931 14.2188 1.532 16.339 1.79884L16.5561 1.82616L16.5404 5.98732C16.5294 8.89409 16.5413 10.2988 16.5799 10.6469C16.635 11.1432 16.6347 11.1467 16.4967 11.4918C16.2521 12.1032 15.9876 12.481 15.3995 13.0587C14.4888 13.9531 13.76 15.0172 12.8456 16.7872C12.2732 17.895 11.7612 19.0071 11.3052 20.1332L10.9872 20.9182L10.9983 21.6117C11.0044 21.9931 10.9921 22.3844 10.971 22.4812C10.9355 22.6438 10.9198 22.6573 10.7645 22.6573C10.672 22.6573 10.4615 22.613 10.2967 22.559ZM18.3161 11.0521C18.2284 10.994 18.1113 10.8868 18.0557 10.814C17.9551 10.6817 17.9548 10.671 17.9548 6.37497L17.9548 2.0685L18.0849 1.87727C18.3153 1.53834 18.3733 1.52999 20.3751 1.54552C22.0508 1.55853 22.1253 1.56289 22.2531 1.65582C22.3263 1.70905 22.431 1.8109 22.4857 1.8822C22.5842 2.01057 22.5853 2.05197 22.5979 6.29438L22.6108 10.5769L22.5003 10.7802C22.2942 11.1595 22.3052 11.1577 20.2658 11.1577C18.4886 11.1577 18.4744 11.1569 18.3161 11.0521Z" fill="#E2A88A"/>
<path d="M18.2076 12.8L23.3924 12.8C23.7278 12.8 24 12.4995 24 12.1292L24 0.679415C24 0.308661 23.7278 0.00853064 23.3924 4.86905e-05L19.5038 4.90305e-05C18.7589 0.00853107 18.1128 0.483077 17.8005 1.17275C17.6721 1.45498 17.6 1.77386 17.6 2.11064L17.6 12.1292C17.6 12.4995 17.8722 12.8 18.2076 12.8Z" fill="#EB3E7D"/>
</g>
<defs>
<clipPath id="clip0_862_4927">
<rect width="24" height="24" fill="white"/>
</clipPath>
</defs>
</svg>

<svg xmlns="http://www.w3.org/2000/svg" width="24" height="24" fill="none">
  <g clip-path="url(#a)">
    <path fill="#D953DC" d="M23.457 1.913v9.217l-4.364.87-1.636-.87-.364-9.217L18.184.696l4.182.174 1.091 1.043Z"/>
    <path fill="#FACCB4" d="M17.453 1.218v10.434l-2.909 3.13-2.545 5.392-.182 2.087-.728 1.044-1.818-.348-1.09-2.087 1.454-5.218-.546-1.217-4.909.348-2.727-1.043-.364-2.783V6.609L2.18 4l.91-2.26L5.816.521l11.636.696Z"/>
    <path fill="#E2A88A" fill-rule="evenodd" d="M11.316 23.968c.417-.125.74-.445.918-.91.14-.363.213-.968.176-1.463l-.031-.429.286-.698c.947-2.308 2.12-4.517 3.015-5.68.196-.254.543-.636.771-.849a4.89 4.89 0 0 0 1.015-1.259l.226-.379.325.108c.316.105.371.107 2.232.109 2.031 0 2.15-.01 2.618-.242.412-.204.83-.69 1.024-1.189.087-.223.092-.447.106-4.53.01-2.66-.003-4.407-.033-4.591-.142-.892-.89-1.62-1.798-1.747-.167-.023-1.042-.043-1.944-.043-1.796 0-2.099.031-2.533.262l-.24.126-.88-.102C14.314.201 12.73.104 9.532.03 7.768-.01 7.02-.01 6.517.03 4.527.19 3.035.806 2.28 1.78c-.43.553-.603 1.063-.61 1.798-.005.463-.007.472-.162.634-.443.464-.777 1.034-.91 1.552-.11.43-.102 1.112.017 1.566l.096.364-.147.208c-.39.553-.604 1.255-.556 1.83.037.454.229 1.02.466 1.377l.196.295-.073.207c-.2.575-.2 1.302.005 1.848.13.348.49.835.804 1.09 1.194.967 3.524 1.18 6.552.6.406-.078.768-.141.805-.141.055 0 .061.074.035.4-.039.498-.181 1.09-.552 2.298-.363 1.18-.475 1.685-.535 2.405-.051.619-.013 1.162.116 1.632.288 1.053 1.154 1.89 2.236 2.159.386.095 1.041.13 1.254.067Zm-1.02-1.409c-.72-.236-1.087-.732-1.188-1.603-.082-.714.058-1.526.498-2.902.463-1.447.635-2.338.597-3.093-.045-.88-.452-1.361-1.151-1.362-.095 0-.55.074-1.013.165-1.424.28-1.796.32-3.01.324-.894.003-1.194-.013-1.543-.082-1.453-.288-1.976-1.099-1.446-2.241.239-.515.225-.612-.153-1.063-.673-.804-.645-1.518.094-2.372.264-.305.29-.554.1-.976-.124-.272-.138-.356-.139-.82 0-.476.01-.537.14-.796.098-.193.274-.407.565-.685.249-.238.436-.46.457-.538.019-.073.007-.327-.027-.565-.071-.505-.027-.793.178-1.16.35-.626 1.282-1.094 2.656-1.335.403-.07.745-.08 2.47-.072 3.297.016 5.838.149 7.958.416l.217.027-.016 4.161c-.01 2.907.001 4.312.04 4.66.055.496.055.5-.083.845-.245.611-.51.989-1.098 1.567-.91.894-1.639 1.958-2.553 3.728a39.908 39.908 0 0 0-1.54 3.346l-.319.785.011.694c.006.381-.006.772-.027.87-.036.162-.051.175-.207.175a1.98 1.98 0 0 1-.467-.098Zm8.02-11.507a1.282 1.282 0 0 1-.26-.238c-.1-.132-.101-.143-.101-4.439V2.068l.13-.19c.23-.34.288-.348 2.29-.332 1.676.013 1.75.017 1.878.11.073.053.178.155.233.226.098.129.1.17.112 4.412l.013 4.283-.11.203c-.207.38-.196.378-2.235.378-1.777 0-1.792-.001-1.95-.106Z" clip-rule="evenodd"/>
    <path fill="#EB3E7D" d="M18.208 12.8h5.184c.336 0 .608-.3.608-.67V.68c0-.371-.272-.671-.608-.68h-3.888c-.745.009-1.391.483-1.704 1.173-.128.282-.2.6-.2.938v10.018c0 .37.272.671.608.671Z"/>
  </g>
  <defs>
    <clipPath id="a">
      <path fill="#fff" d="M0 0h24v24H0z"/>
    </clipPath>
  </defs>
</svg>
